icon-themes/sifr_svg/cmd/sc_ruler.svg

<svg viewBox="0 0 16 16" xmlns="http://www.w3.org/2000/svg"><path d="m0 4v8h16v-8zm2 2h2v3h2v-3h3v3h2v-3h3v4h-12z" fill="#555753"/></svg>

<svg xmlns="http://www.w3.org/2000/svg" viewBox="0 0 16 16">
  <path
     style="fill:#555753"
     d="M 0 4 L 0 12 L 16 12 L 16 4 L 0 4 z M 2 6 L 4 6 L 4 9 L 6 9 L 6 6 L 9 6 L 9 9 L 11 9 L 11 6 L 14 6 L 14 10 L 2 10 L 2 6 z "
     />
</svg>
